logos/wufoo.svg

<?xml version="1.0" encoding="UTF-8"?>
<svg width="512px" height="149px" viewBox="0 0 512 149" version="1.1" xmlns="http://www.w3.org/2000/svg" preserveAspectRatio="xMidYMid">
    <title>Wufoo</title>
    <g>
        <path d="M142.656489,0 L139.073791,70.279491 L144.936387,28.3358778 L174.900763,32.2442748 L166.10687,95.4300254 C163.826972,112.040712 168.061069,122.463104 179.78626,124.091603 C191.267176,125.686175 198.376308,118.224908 200.80789,101.402039 L209.750636,37.4554708 L235.992264,41.2010178 L233.852418,15.9592875 L305.506362,9.77099236 L307.46056,34.524173 L266.096692,37.7811704 L267.72519,58.3002544 L306.80916,55.043257 L308.329838,73.8085078 C312.635864,46.7304332 332.699684,26.7073792 363.155216,26.7073792 C381.035112,26.7073792 394.533442,33.239894 403.610808,43.468157 C409.266296,18.5884395 428.782672,0.651399492 457.608142,0.651399492 C493.760814,0.651399492 512,27.3587786 512,57.3231552 C511.6743,93.1501272 490.178118,115.949109 455.653944,115.949109 C438.423568,115.949109 425.006116,109.459025 415.887452,99.1106088 C410.221694,125.744771 390.35716,142.005089 361.201018,142.005089 C326.676844,142.005089 307.46056,115.949109 307.46056,85.0076336 C307.46056,83.05755 307.536452,81.1319856 307.686562,79.2349954 L269.67939,82.4020356 L273.262086,124.743003 L243.29771,127.348601 L237.308092,56.7238676 L230.92112,102.92112 C226.035624,137.119593 206.493638,151.776081 175.552163,147.541985 C153.786981,144.49954 140.598327,133.889572 136.711226,114.987053 L104.549618,121.160305 L88.2869056,78.12571 L88.2869056,78.12571 L87.0425774,74.7512406 C86.836206,74.1841 86.630166,73.6142414 86.4241922,73.0411346 L85.1870236,69.5592698 L85.1870236,69.5592698 L83.938718,65.973987 L83.938718,65.973987 L82.0175336,60.3464682 L82.0175336,60.3464682 L77.8422392,47.8778626 L77.8422392,47.8778626 L77.5165394,47.8778626 L78.275732,63.1619512 L78.275732,63.1619512 L78.533481,69.0698914 L78.533481,69.0698914 L78.6668634,72.8341664 L78.6668634,72.8341664 L78.7620608,76.4775222 C78.7990526,78.2716218 78.8193384,80.0263434 78.8193384,81.7506362 L78.8193384,126.371501 L46.5750636,132.885496 L0,27.6844784 L31.5928754,21.4961832 L45.9236642,60.9058524 C47.2264632,64.442021 48.529262,68.1111284 49.816868,71.8068234 L51.7349832,77.357013 L51.7349832,77.357013 L56.355789,90.8835228 L56.355789,90.8835228 L58.1044074,95.9451628 C58.389988,96.7643974 58.6724828,97.570338 58.951654,98.3613232 L59.2773536,98.3613232 C58.6259542,85.659033 58.3002544,71.9796438 58.3002544,57.9745548 L57.3231552,16.9363868 L88.9160306,10.7480916 L103.898219,51.7862596 C106.938083,60.0373198 109.543681,67.7093582 112.101027,75.4779002 L114.656586,83.3036298 C115.084598,84.621619 115.514843,85.948544 115.949109,87.2875318 L116.274809,87.2875318 L115.437296,70.648358 L115.437296,70.648358 L114.320611,47.8778626 L114.320611,47.8778626 L113.017812,5.86259542 L142.656489,0 Z M362.503816,50.1577608 C348.109052,50.1577608 339.683544,64.295477 339.387222,83.00551 L339.379134,84.0305344 C339.05915,103.869649 347.85595,117.735696 361.7544,118.216118 L362.829516,118.229008 C377.160306,118.229008 385.628498,104.223919 385.628498,84.0305344 C385.628498,64.8142494 377.160306,50.1577608 362.503816,50.1577608 Z M456.956744,24.1017812 C442.561978,24.1017812 434.13647,38.2394974 433.84015,57.2580916 L433.832062,58.3002544 C433.506362,78.4936386 442.625954,92.4987278 456.956744,92.4987278 L457.282442,92.173028 C471.613232,92.173028 480.081424,78.167939 480.081424,57.9745548 C480.081424,38.7582698 471.613232,24.1017812 456.956744,24.1017812 Z" fill="#E66760"></path>
    </g>
</svg>

<svg preserveAspectRatio="xMidYMid" viewBox="0 0 512 149" xmlns="http://www.w3.org/2000/svg">
  <path fill="#E66760" d="m142.656 0-3.582 70.28 5.862-41.944 29.965 3.908-8.794 63.186c-2.28 16.61 1.954 27.033 13.68 28.662 11.48 1.594 18.59-5.867 21.02-22.69l8.944-63.947 26.241 3.746-2.14-25.242 71.654-6.188 1.955 24.753-41.364 3.257 1.628 20.52 39.084-3.258 1.52 18.766c4.307-27.079 24.37-47.102 54.826-47.102 17.88 0 31.378 6.533 40.456 16.761C409.266 18.588 428.783.651 457.608.651 493.761.651 512 27.36 512 57.323c-.326 35.827-21.822 58.626-56.346 58.626-17.23 0-30.648-6.49-39.767-16.838-5.665 26.634-25.53 42.894-54.686 42.894-34.524 0-53.74-26.056-53.74-56.997 0-1.95.075-3.876.226-5.773l-38.008 3.167 3.583 42.341-29.964 2.606-5.99-70.625-6.387 46.197c-4.885 34.199-24.427 48.855-55.369 44.621-21.765-3.042-34.954-13.652-38.84-32.555l-32.162 6.173-16.263-43.034-1.244-3.375c-.207-.567-.413-1.137-.619-1.71l-1.237-3.482-1.248-3.585-1.921-5.628-4.176-12.468h-.325l.759 15.284.257 5.908.134 3.764.095 3.644c.037 1.794.057 3.548.057 5.273v44.62l-32.244 6.514L0 27.685l31.593-6.189 14.33 39.41a657.123 657.123 0 0 1 3.894 10.9l1.918 5.551 4.62 13.527 1.75 5.061c.285.82.567 1.625.847 2.416h.325C58.626 85.66 58.3 71.98 58.3 57.975l-.977-41.039 31.593-6.188 14.982 41.038c3.04 8.251 5.646 15.923 8.203 23.692l2.556 7.826 1.292 3.984h.326l-.838-16.64-1.116-22.77-1.303-42.015L142.656 0Zm219.848 50.158c-14.395 0-22.82 14.137-23.117 32.848l-.008 1.025c-.32 19.839 8.477 33.705 22.375 34.185l1.076.013c14.33 0 22.798-14.005 22.798-34.198 0-19.217-8.468-33.873-23.124-33.873Zm94.453-26.056c-14.395 0-22.82 14.137-23.117 33.156l-.008 1.042c-.326 20.194 8.794 34.199 23.125 34.199l.325-.326c14.331 0 22.8-14.005 22.8-34.198 0-19.217-8.469-33.873-23.125-33.873Z"/>
</svg>
